Sources/FrostedUI/Resources/Icons.xcassets/clipboardSize20.imageset/clipboard-size-20.svg

<svg
  width="20"
  height="20"
  viewBox="0 0 20 20"
  fill="none"
  xmlns="http://www.w3.org/2000/svg"
  data-fui-icon="true"
>
  <path
    d="M13.8281 3.75H15.1562C16.0192 3.75 16.7188 4.44956 16.7188 5.3125V17.3438C16.7188 18.2067 16.0192 18.9062 15.1563 18.9062H4.84375C3.98081 18.9062 3.28125 18.2067 3.28125 17.3437V5.3125C3.28125 4.44956 3.98081 3.75 4.84375 3.75H6.17188M6.71875 9.75H13.2813M6.71875 14.25H13.2813"
    stroke="currentColor"
    stroke-width="1.5"
    stroke-linecap="round"
    stroke-linejoin="round"
  />
  <path
    d="M8.42329 2.60229L7.71698 2.35004L7.71698 2.35004L8.42329 2.60229ZM8.75811 1.66479L8.0518 1.41254L8.0518 1.41254L8.75811 1.66479ZM8.38962 2.75V3.5C8.77398 3.5 9.09613 3.20943 9.13564 2.82711L8.38962 2.75ZM11.6104 2.75L10.8644 2.8271C10.9039 3.20943 11.226 3.5 11.6104 3.5V2.75ZM11.5767 2.60229L12.283 2.35004V2.35004L11.5767 2.60229ZM11.2419 1.66479L10.5356 1.91704V1.91704L11.2419 1.66479ZM9.1296 2.85454L9.46442 1.91704L8.0518 1.41254L7.71698 2.35004L9.1296 2.85454ZM9.13564 2.82711C9.13454 2.83779 9.13226 2.84709 9.1296 2.85454L7.71698 2.35004C7.67919 2.45587 7.65483 2.56418 7.64359 2.67289L9.13564 2.82711ZM6.87562 3.5H8.38962V2H6.87562V3.5ZM7 3.375C7 3.445 6.94369 3.5 6.87562 3.5V2C6.11719 2 5.5 2.61464 5.5 3.375H7ZM7 4.875V3.375H5.5V4.875H7ZM6.875 4.75C6.94404 4.75 7 4.80596 7 4.875H5.5C5.5 5.63439 6.11561 6.25 6.875 6.25V4.75ZM13.125 4.75H6.875V6.25H13.125V4.75ZM13 4.875C13 4.80596 13.056 4.75 13.125 4.75V6.25C13.8844 6.25 14.5 5.63439 14.5 4.875H13ZM13 3.375V4.875H14.5V3.375H13ZM13.1244 3.5C13.0563 3.5 13 3.445 13 3.375H14.5C14.5 2.61464 13.8828 2 13.1244 2V3.5ZM11.6104 3.5H13.1244V2H11.6104V3.5ZM10.8704 2.85454C10.8677 2.84709 10.8655 2.83779 10.8644 2.8271L12.3564 2.6729C12.3452 2.56418 12.3208 2.45587 12.283 2.35004L10.8704 2.85454ZM10.5356 1.91704L10.8704 2.85454L12.283 2.35004L11.9482 1.41254L10.5356 1.91704ZM10.6533 2C10.6005 2 10.5533 1.96679 10.5356 1.91704L11.9482 1.41254C11.7528 0.865298 11.2344 0.5 10.6533 0.5V2ZM9.3467 2H10.6533V0.5H9.3467V2ZM9.46442 1.91704C9.44665 1.96679 9.39953 2 9.3467 2V0.5C8.76561 0.5 8.24725 0.865297 8.0518 1.41254L9.46442 1.91704Z"
    fill="currentColor"
  />
</svg>

<svg xmlns="http://www.w3.org/2000/svg" width="20" height="20" fill="none" data-fui-icon="true" viewBox="0 0 20 20"><path stroke="currentColor" stroke-linecap="round" stroke-linejoin="round" stroke-width="1.5" d="M13.828 3.75h1.328c.863 0 1.563.7 1.563 1.563v12.03c0 .864-.7 1.563-1.563 1.563H4.844c-.863 0-1.563-.7-1.563-1.562V5.312c0-.862.7-1.562 1.563-1.562h1.328m.547 6h6.562m-6.562 4.5h6.562"/><path fill="currentColor" d="m8.423 2.602-.706-.252zm.335-.937-.706-.252zM8.39 2.75v.75a.75.75 0 0 0 .746-.673zm3.22 0-.746.077a.75.75 0 0 0 .746.673zm-.033-.148.706-.252zm-.335-.937-.706.252zM9.13 2.855l.334-.938-1.412-.504-.335.937zm.006-.028-.006.028-1.413-.505a1.4 1.4 0 0 0-.073.323zm-2.26.673H8.39V2H6.876zM7 3.375c0 .07-.056.125-.124.125V2C6.117 2 5.5 2.615 5.5 3.375zm0 1.5v-1.5H5.5v1.5zm-.125-.125c.069 0 .125.056.125.125H5.5c0 .76.616 1.375 1.375 1.375zm6.25 0h-6.25v1.5h6.25zM13 4.875c0-.069.056-.125.125-.125v1.5c.76 0 1.375-.616 1.375-1.375zm0-1.5v1.5h1.5v-1.5zm.124.125A.124.124 0 0 1 13 3.375h1.5c0-.76-.617-1.375-1.376-1.375zm-1.514 0h1.514V2H11.61zm-.74-.645-.006-.028 1.492-.154a1.4 1.4 0 0 0-.073-.323zm-.334-.938.334.938 1.413-.505-.335-.937zm.117.083a.125.125 0 0 1-.117-.083l1.412-.504A1.375 1.375 0 0 0 10.653.5zM9.347 2h1.306V.5H9.347zm.117-.083A.125.125 0 0 1 9.347 2V.5c-.581 0-1.1.365-1.295.913z"/></svg>
